X:1
T:Lord Thomas of Winesberry
M:4/4
L:1/8
K:C
 C2| G2 G2 G2 GF| E2 D2 C2c-d| e2d-cB-cd-B| c6|c-d| e2 dc d2 cB|A-B cB A2 Bc|\
G-A GF E2 D2| G4-G-F EF| G2 cc E2 D2| C6||
